X: 1
T: the Stronsay Waltz
C: J. Chalmers
R: waltz
Z: 2015 John Chambers <jc:trillian.mit.edu>
S: Page of unknown origin from Concord Slow Scottish Session collection
M: 3/4
L: 1/8
K: A
"A1"|: e2 d2 |\
"A"c3 B cd | e2 c2 A2 |\
"D"d3 c de | f2 a2 f2 |\
e2 c2 A2 | A2 c2 e2 |\
"E"B6- | B2 ||
"A2"[|] e2 d2 |\
"A"c3 B cd | e2 c2 A2 |\
"D"d3 c de | f2 a2 f2 |\
"A"e2 c2 A2 | "E"B4 e2 |\
A6- | A2 :|
"B1"[|] z2 e2 |\
"A"a3 g af | e2 c2 A2 |\
"D"d3 c de | f2 a2 f2 |\
"A"e2 c2 A2 | A2 c2 e2 |\
"E"B6- | B2 ||
"B2"[|] z2 e2 |\
"A"a3 g af | e2 c2 A2 |\
"D"d3 c de | f2 a2 f2 |\
"A"e2 c2 A2 | "E"B4 e2 |\
"A"A6- | A2 |]
"B1"[|] z2 e2 |\
"A"a3 g af | e2 c2 A2 |\
"D"d3 c de | f2 a2 f2 |\
"A"e2 c2 A2 | A2 c2 e2 |\
"E"B6- | B2 ||
"A2"[|] e2 d2 |\
"A"c3 B cd | e2 c2 A2 |\
"D"d3 c de | f2 a2 f2 |\
"A"e2 c2 A2 | "E"B4 e2 |\
"A"A6- | A2 |]
